X:1
T:F Major Jacob French, 1802
T:Isaac Watts, 1719 (Psalm 126)    86. 86. (C. M.)
T:North Bolton
T:Transcribed from Harmony of Harmony, 1802
%%score [ 1 2 3 4 ]
L:1/8
Q:1/4=150
M:2/2
K:F
V:1 treble nm="Treble" snm="Tr."
V:2 treble nm="Counter" snm="C."
V:3 treble-8 nm="Tenor" snm="T."
V:4 bass nm="Bass" snm="B."
V:1
 A4 | c2 A2 F2 A2 | d4 c4 | c6 c2 | (c2 d2 c2) A2 | (B2 A2) (G2 F2) | G6 AB | c2 A2 F2 G2 | %8
w: ||||||||
w: ||||||||
w: ||||||||
 A2 B2 c2 de | f2 f2 c2 c2 | c8 |:[M:6/8][Q:1/8=150] z4 z A | FGA AGA | B2 A A2 A | G2 A Bc d/B/ | %15
w: ||||||did thy hand * con- *|
w: ||||||give us day * for *|
w: ||||||shan't de- ceive * their *|
[M:2/2][Q:1/4=150] G6 G2 | A2 c2 A2 c2 | A2 F2 A2 F2 | [Ac]2 c2 cB A2 | (G6 AB | c6) c2 | %21
w: fess; My|tongue broke out in|un- known strains, And|sang sur- pri- * sing|grace,~~ _ _|_ _|
w: night; Make|drops of sac- red|sor- row rise to|ri- vers of * de-|light,~ _ _|_ _|
w: hope; The|pre- cious grain can|ne'er be lost, For|grace in- sures * the|crop.~ _ _|_ _|
 f2 c2 A2 c2 | d2 B2 G2 d2 | [cf]2 [df]2 c2 c2 | c8 :| %25
w: ||||
w: ||||
w: ||||
V:2
 F4 | F2 F2 F2 F2 | F4 E4 | F6 E2 | (F2 A4) F2 | D4 (E2 F2) | E6 F2 | A2 F2 D2 E2 | F2 F2 G2 G2 | %9
w: 1.~When|God re- vealed his|gra- cious|name, And|changed * my|mourn- ful *|state, My|rap- ture seemed a|plea- sing dream, The|
w: 2.~"Great~|is the work," my|neigh- bors|cried, And|owned * the|power di- *|vine; "Great|is the work," my|heart re- plied, "And|
w: 3.~Let|those that sow in|sad- ness|wait Till|the * fair|har- vest *|come, They|shall con- fess their|sheaves are great, And|
 A2 F2 E2 E2 | F8 |:[M:6/8] z4 z C | C2 F E2 C | GFE F2 F | D2 D E2 F |[M:2/2] E6 z2 | z4 z2 C2 | %17
w: grace ap- peared so|great.|The|world be- held the|glo- * rious change, And|did thy hand con-|fess;|My|
w: be the glo- ry|thine."|The|Lord can clear the|dar- * kest skies, Can|give us day for|night;|Make|
w: shout the bles- sings|home.|Though|seed lie bu- ried|long * in dust, It|shan't de- ceive their|hope;|The|
 F2 A2 F2 A2 | F2 C2 A,2 C2 | G2 G2 GF ED | E6 F2 | A2 A2 F2 F2 | G2 G2 G2 G2 | [FA]2 F2 F2 G2 | %24
w: tongue broke out in|un- known strains, And|sang sur- pri- * sing *|grace, My|tongue broke out in|un- known strains, And|sang sur- pri- sing|
w: drops of sac- red|sor- row rise to|ri- vers of * de- *|light, Make|drops of sac- red|sor- row rise To|ri- vers of de-|
w: pre- cious grain can|ne'er be lost, For|grace in- sures * the *|crop, The|pre- cious grain can|ne'er be lost, For|grace in- sures the|
 A8 :| %25
w: grace.|
w: light.|
w: crop.|
V:3
 c4 | A2 F2 f2 c2 | (B2 A2) G4 | F6 G2 | (A2 f2 e2) c2 | (d3 c) =B4 | c6 c2 | f2 c2 A2 c2 | %8
w: ||||||||
w: ||||||||
w: ||||||||
 d2 B2 G2 d2 | c2 B2 A2 G2 | F8 |:[M:6/8] z4 z F | AGF c2 f | edc d2 c | B2 A G2 F |[M:2/2] c6 z2 | %16
w: ||||||did thy hand con-|fess;|
w: ||||||give us day for|night;|
w: ||||||shan't de- ceive their|hope;|
 z4 z2 F2 | c2 f2 c2 f2 | c2 A2 F2 A2 | c2 c2 cB A2 | G6 AB | c2 f2 c2 A2 | B2 d2 B2 G2 | %23
w: My|tongue broke out in|un- known strains, And|sang sur- pri- * sing|grace, * *|||
w: Make|drops of sac- red|sor- row rise To|ri- vers of * de-|light, * *|||
w: The|pre- cious grain can|ne'er be lost, For|grace in- sures * the|crop, * *|||
 c2 B2 A2 G2 | F8 :| %25
w: ||
w: ||
w: ||
V:4
 F,4 | F,2 F,2 F,2 F,2 | B,,4 C,4 | [F,,F,]6 C,2 | (F,3 G, A,2) A,2 | (G,2 F,2) (E,2 D,2) | %6
w: ||||||
w: ||||||
w: ||||||
 C,6 F,2 | F,2 F,2 F,2 E,2 | D,2 D,2 C,2 B,,2 | A,,2 B,,2 C,2 C,2 | F,,8 |:[M:6/8] z4 z F, | %12
w: ||||||
w: ||||||
w: ||||||
 F,E,D, C,2 F, | G,2 A, D,>E,F, | G,2 F, E,2 D, |[M:2/2] C,6 C,2 | F,2 A,2 F,2 A,2 | %17
w: ||did thy hand con-|fess; My|tongue broke out in|
w: ||give us day for|night; Make|drops of sac- red|
w: ||shan't de- ceive their|hope; The|pre- cious grain can|
 F,2 D,2 F,2 D,2 | F,2 A,2 A,G, F,2 | C,8- | C,6 F,2 | F,2 F,2 F,2 A,2 | G,2 G,2 G,2 B,2 | %23
w: un- known strains, And|sang sur- pri- * sing|grace,~|_ _|||
w: sor- row rise To|ri- vers of * de-|light,~|_ _|||
w: ne'er be lost, For|grace in- sures * the|crop,~|_ _|||
 A,2 B,2 C2 C,2 | [F,,F,]8 :| %25
w: ||
w: ||
w: ||

